X:536
T:
S:Efter »Florsen» i Burs.
R:vals
O:Gotland, Burs
M:3/4
L:1/8
K:D
ag|(fa) (df) a2|(fa) (df) a2|(gb) (ce) b2|(gb) (ce) b2|
a2 (gf) (ed)|(ce)(gf)(ef)|(gf)(gb)(ac)|d4::fg|
(af) (de) (fd)|(AG) (FA) d2|(cB) (ce) g2|
(fe) (de) (fg)|a2 (de) (fd)|(AG) (FA) d2|
(cB) (cb) (ac)|d4:|

